flags/hr.svg

<svg width="512" height="512" viewBox="0 0 512 512" fill="none" xmlns="http://www.w3.org/2000/svg">
<rect y="136" width="512" height="240" fill="var(--flag-palette-white, #eeeeee)"/>
<rect y="344" width="512" height="168" fill="var(--flag-palette-blue, #0052b4)"/>
<rect width="512" height="168" fill="var(--flag-palette-bright-red, #d80027)"/>
<path d="M338.493 181.744H283.497L292.664 112.998L329.327 85.5L365.99 112.998V167.995L338.493 181.744Z" fill="var(--flag-palette-light-blue, #338af3)"/>
<path d="M173.505 181.744H228.501L219.334 112.998L182.67 85.5L146.008 112.998V167.995L173.505 181.744Z" fill="var(--flag-palette-light-blue, #338af3)"/>
<path d="M292.664 181.744H219.334V112.998L255.999 85.5L292.664 112.998V181.744Z" fill="var(--flag-palette-blue, #0052b4)"/>
<path d="M146 168V278C146 338.751 195.249 388 256 388C316.751 388 366 338.751 366 278V168H146Z" fill="var(--flag-palette-white, #eeeeee)"/>
<path d="M146 168V278C146 338.751 195.249 388 256 388C316.751 388 366 338.751 366 278V168H146Z" fill="var(--flag-palette-white, #eeeeee)"/>
<path fill-rule="evenodd" clip-rule="evenodd" d="M146 212L189.999 212V256H233.999V212L190 212V168H146V212ZM234 168V212H278V256H322V212H366V168H322V212H278V168H234ZM366 256.001H322V300H278V256.001H234V300.001H278V344H234V385.8C241.077 387.236 248.4 387.993 255.899 388H256.101C263.6 387.993 270.923 387.236 278 385.8V344H322V366.008C330.333 359.749 337.749 352.333 344.008 344H322V300.001H363.799C365.242 292.892 366 285.535 366 278V256.001ZM190 366.008V344H233.999V300H190V256.001H146V278C146 285.535 146.758 292.892 148.201 300.001H189.999V344H167.992C174.251 352.333 181.667 359.749 190 366.008Z" fill="var(--flag-palette-bright-red, #d80027)"/>
</svg>

<svg xmlns="http://www.w3.org/2000/svg" width="512" height="512" fill="none"><path fill="#EEE" d="M0 136h512v240H0z"/><path fill="var(--flag-palette-blue, #0052b4)" d="M0 344h512v168H0z"/><path fill="var(--flag-palette-bright-red, #d80027)" d="M0 0h512v168H0z"/><path fill="var(--flag-palette-light-blue, #338af3)" d="M338.5 181.7h-55l9.2-68.7 36.6-27.5L366 113v55zm-165 0h55l-9.2-68.7-36.6-27.5L146 113v55z"/><path fill="var(--flag-palette-blue, #0052b4)" d="M292.7 181.7h-73.4V113L256 85.5l36.7 27.5z"/><path fill="#EEE" d="M146 168v110a110 110 0 0 0 220 0V168z"/><path fill="#EEE" d="M146 168v110a110 110 0 0 0 220 0V168z"/><path fill="var(--flag-palette-bright-red, #d80027)" fill-rule="evenodd" d="M146 212h44v44h44v-44h-44v-44h-44zm88-44v44h44v44h44v-44h44v-44h-44v44h-44v-44zm132 88h-44v44h-44v-44h-44v44h44v44h-44v41.8q10.6 2.1 21.9 2.2h.2q11.3 0 21.9-2.2V344h44v22q12.5-9.5 22-22h-22v-44h41.8q2.1-10.7 2.2-22zM190 366v-22h44v-44h-44v-44h-44v22q0 11.3 2.2 22H190v44h-22q9.5 12.5 22 22" clip-rule="evenodd"/></svg>
